X: 10730
T: Dr McPhail's
R: reel
M: 4/4
K: Gmajor
|:B2 dG G2 ed|eged gded|B2 de GBed|egde gGBA:|
|:Bddg Bdge|dBBd e/g3/2ed|Bddg Bdgd|edde gGBA|
Bddg Bdge|dBBd g2 ed|B2 dG GBed|e/g3/2de gGBA||
|:GddB deBd|Aeed e/g3/2ed|GddB deBd|e/f/gde gGBA:|
|:B2 dg ceBd|c2 e/g3/2 d/g3/2ed|1 B2 dg ceBd|e/g3/2de gGBA:|
2 B2 dG G2 ed|e/g3/2de gGBA||

